X:5991
T:Shepherd's Hey
O:england
M:4/4
C:
S:Bacon (News - RKS)
N:transposed from F to G
A:Adderbury
R:Reel
%P:Ch(AB)$^6$
P:A.(AB)6
%:
%:
K:G
I:speed 900
P:A
|:\
B2 d2 c4        | B2 d2 A4        | B2 d2 c2 Bc   |  d2 D2 G4 :|
w:            I can whistle,    I can sing,       I can do most_   an-y-thing.
w:            I can dance,      I can play,       I can do the_    Shep-herd's Hey.
%:
%:
P:B
G/2A/2 |:  B2 G2 c4        | B2 G2 A4        | B2 d2 c2 Bc |1 d2 D2 G3 \
G/2A/2 :|2 d2 D2 G4       ||


